X:11
T:StNiklaas
O:belgium
C:- Belg -
M:6/8
L:1/8
Q:1/4=174
K:F
V:1
C |"F" FF FA GF |A2 B(c3 |
M:3/8
c2) c|
M:6/8
"F" c dc B2 A|A3 "C" (G3 |
M:3/8
G2) C|
M:6/8
"F" F FF AG F|"Bb" B2 A"C" G2 c |:"F" c Ad c2 F|F ED C2 C|
F FF G2 A|"Bb" B2 G"C" A3 |GA G"F" (F3 |1
M:3/8
F2) c:|2 F2) ||
